Programm/icons/user-add.svg

<?xml version="1.0" encoding="UTF-8" standalone="no"?>
<!DOCTYPE svg PUBLIC "-//W3C//DTD SVG 1.1//EN" "http://www.w3.org/Graphics/SVG/1.1/DTD/svg11.dtd">
<svg width="100%" height="100%" viewBox="0 0 512 512" version="1.1" xmlns="http://www.w3.org/2000/svg" xmlns:xlink="http://www.w3.org/1999/xlink" xml:space="preserve" xmlns:serif="http://www.serif.com/" style="fill-rule:evenodd;clip-rule:evenodd;stroke-linejoin:round;stroke-miterlimit:2;">
    <g transform="matrix(25.6,0,0,25.6,0,0)">
        <path d="M2,6L0,6L0,8L2,8L2,10L4,10L4,8L6,8L6,6L4,6L4,4L2,4L2,6ZM9,6C9,4.354 10.354,3 12,3C13.646,3 15,4.354 15,6L15,8C15,9.646 13.646,11 12,11C10.354,11 9,9.646 9,8L9,6ZM20,15.14C17.569,13.734 14.808,12.996 12,13C9.09,13 6.35,13.78 4,15.14L4,18L20,18L20,15.14Z" style="fill-rule:nonzero;"/>
    </g>
</svg>

<svg xmlns="http://www.w3.org/2000/svg" viewBox="0 0 20 20"><path d="M2 6H0v2h2v2h2V8h2V6H4V4H2v2zm7 0a3 3 0 0 1 6 0v2a3 3 0 0 1-6 0V6zm11 9.14A15.93 15.93 0 0 0 12 13c-2.91 0-5.65.78-8 2.14V18h16v-2.86z"/></svg>
